X: 25243
T: Mamallapuram Monsoon
R: reel
M: 4/4
K: Eminor
~B3A GEDE|GE(3EEE BAge|~B3A GEEB|AGAB AGEG|
~B3A GEDE|GE(3EEE B2ga|bgaf gedc|BGAF G4:|
|:(3eee fe(3gfe fe|eBgB aBgB|dcde(3fed ed|effd gdfd|
edef(3gfe fd|edBd c2BA|BA(3cBA BGEF|GEED E4:|

